X:1
T:Title
%%score { ( 1 3 5 ) | ( 2 4 ) }
L:1/8
M:6/4
K:Eb
V:1 treble nm="Grand Piano"
V:3 treble 
V:5 treble 
V:2 bass 
V:4 bass 
V:1
 z6 z4[Q:1/4=132] B,2 | G6 G6 | .G12[K:bass][K:treble] | B6 B6 | .B12 | c6 e6 | B6 z6 | F6 G6 | %8
 F12 | G6 G6 | .G12[K:bass][K:treble] | B6 B6 | .B12 | c6 e6 | B6 z6 | G6 F6[K:bass] | E12 | %17
 [GB]2 c2 d2 [Ge]2 d2 c2 | e6 G6 | [B,EG]2 F2 E2 [B,EG]2 F2 E2 | B12 | [AB]2 c2 d2 [FAd]2 c2 B2 | %22
 d6 F6 | z6 .[EG]6 | z6 B6 | [GB]2 c2 d2 [Ge]2 d2 c2 | e6 G6 | [B,EG]2 F2 E2 [B,EG]2 F2 E2 | c12 | %29
 [DF]2 [EG]2 [DFA]2 [FAB]2 [FAc]2 [ABd]2 | [EGe]2 d2 e2 [B,EG]2 [CEA]2 [EAc]2 | G6 F6 | %32
[M:5/4] E2- E2- E6 |] %33
V:2
 z12 | z2 B,2 B,2 z2 B,2 B,2 | z2 B,2 B,2 z2 B,2 [G,B,]2 | z2 [B,E]2 [B,E]2 z2 [B,D]2 [B,D]2 | %4
 z2 B,2 B,2 z2 [B,E]2 [G,B,]2 | z2 E2 E2 z2 E2 E2 | z2 B,2 B,2 z2 B,2 [G,B,]2 | %7
 z2 [=A,C]2 [A,C]2 z2 [A,E]2 [A,E]2 | z2 [A,B,]2 [A,B,]2 B,,2 C,2 [D,A,]2 | z2 B,2 B,2 z2 B,2 B,2 | %10
 z2 B,2 B,2 z2 B,2 [G,B,]2 | z2 [B,E]2 [B,E]2 z2 [B,D]2 [B,D]2 | z2 B,2 B,2 z2 [B,E]2 [G,B,]2 | %13
 z2 E2 E2 z2 E2 E2 | z2 B,2 B,2 z2 B,2 [G,B,]2 | z2 B,2 B,2 z2 A,2 A,2 | %16
 [E,,E,]2 [B,,,B,,]2 [G,,,G,,]2 .[E,,,E,,]6 | z2[K:treble] G2 G2[K:bass] z2[K:treble] G2 G2 | %18
 z2[K:treble] [EG]2 [EG]2[K:bass] z2 B,2 B,2 | z2 A,2 B,2 z2 A,2 G,2 | F,2 F,2 G,2 .[A,D]6 | %21
 z2[K:treble] [EA]2 [FA]2[K:bass] z2[K:treble] [EA]2 [DG]2 | %22
 z2[K:treble] F2 F2[K:bass] z2 A,2 A,2 | A,,2 G,,2 [F,,F,]2 [B,,,B,,]2 [C,,C,]2 [D,,D,]2 | %24
 [E,,E,]4 [A,,A,]2 z2 B,2 B,2 | z2[K:treble] G2 G2[K:bass] z2[K:treble] G2 G2 | %26
 z2[K:treble] [EG]2 [EG]2[K:bass] z2 B,2 B,2 | z2 [A,D]2 [G,B,]2 z2 [A,D]2 [G,B,]2 | %28
 z2 E2 [G,,G,]2 z2[K:treble] F2 F2 | [A,,A,]2 [G,,G,]2 [F,,F,]2 D,2 C,2 B,,2 | %30
 z2[K:treble] [EG]2 [EG]2[K:bass] [E,,E,]2 [C,,C,]2 [A,,,A,,]2 | z2 B,2 B,2 z2 [A,B,]2 [A,B,]2 | %32
[M:5/4] [E,,E,]2 [B,,,B,,]2 [G,,,G,,]2 [E,,,E,,]4 |] %33
V:3
 x12 | z2 E2 E2 z2 E2 E2 | z2 E2 E2[K:bass] z2[K:treble] F2 E2 | z2 G2 G2 z2 A2 A2 | %4
 z2 E2 E2 z2 G2 E2 | z2 A2 A2 z2 A2 A2 | z2 E2 E2 G2 F2 E2 | z2 E2 E2 z2 F2 F2 | z2 D2 D2 D4 B,2 | %9
 z2 E2 E2 z2 E2 E2 | z2 E2 E2[K:bass] z2[K:treble] F2 E2 | z2 G2 G2 z2 A2 A2 | z2 E2 E2 z2 G2 E2 | %13
 z2 A2 A2 z2 A2 A2 | z2 E2 E2 G2 F2 E2 | z2 E2 E2 z2[K:bass] B,2 B,2 | %16
 z2 [G,B,]2 [G,B,]2 .[G,B,]6 | x12 | z2 B2 B2 z2 E2 E2 | x12 | D2 D2 E2 .F6 | x12 | %22
 z2 A2 A2 z2 B,2 B,2 | [A,B,DF]2 [G,B,EG]2 [B,DA]2 B,2 =A,2 [_A,B,F]2 | %24
 [G,B,E]2 [B,EG]2 [Ec]2 z2 E2 E2 | x12 | z2 B2 B2 z2 E2 E2 | x12 | z2 A2 [=EB]2 z2 A2 A2 | x12 | %30
 x12 | z2 E2 E2 z2 D2 D2 |[M:5/4] z2 [G,B,]2 [G,B,]2 [G,B,]4 |] %33
V:4
 x12 | [E,,E,]6 [B,,,B,,]6 | [E,,E,]6 B,,,6 | [E,,E,]6 [F,,F,]6 | [G,,G,]6 E,,6 | [A,,A,]6 [C,C]6 | %6
 [G,,G,]6 [E,,E,]6 | [C,,C,]6 [F,,F,]6 | B,,6 z6 | [E,,E,]6 [B,,,B,,]6 | [E,,E,]6 B,,,6 | %11
 [E,,E,]6 [F,,F,]6 | [G,,G,]6 E,,6 | [A,,A,]6 [C,C]6 | [G,,G,]6 [E,,E,]6 | [B,,,B,,]6 [D,,D,]6 | %16
 x12 | [E,,E,]6[K:treble][K:bass] [B,,,B,,]6[K:treble] | [E,,E,]6[K:treble][K:bass] [B,,,B,,]6 | %19
 [E,,E,]6 [E,,E,]6 | B,,12 | [B,,B,]6[K:treble][K:bass] [F,,F,]6[K:treble] | %22
 [A,,,B,,]6[K:treble][K:bass] [C,,D,]6 | x12 | z6 [G,,G,]6 | %25
 [E,,E,]6[K:treble][K:bass] [B,,,B,,]6[K:treble] | [E,,E,]6[K:treble][K:bass] [B,,,B,,]6 | %27
 [E,,E,]6 [E,,E,]6 | .[A,,A,]6 F,,6[K:treble] | x12 | [E,,E,]6[K:treble][K:bass] z6 | %31
 [B,,,B,,]6 [B,,,B,,]6 |[M:5/4] x10 |] %33
V:5
 x12 | x12 | z6[K:bass] B,,6[K:treble] | x12 | z6 E,6 | x12 | x12 | x12 | x12 | x12 | %10
 z6[K:bass] B,,6[K:treble] | x12 | z6 E,6 | x12 | x12 | x8[K:bass] x4 | x12 | x12 | x12 | x12 | %20
 x12 | x12 | x12 | x12 | x12 | x12 | x12 | x12 | z6 F,6 | x12 | x12 | x12 |[M:5/4] x10 |] %33

